!!!COM: Palestrina, Giovanni Perluigi da
!!!OPR: Octavi toni
!!!OTL: Credo
**kern	**kern	**kern	**kern	**kern	**kern
*Ibass	*Itenor	*Itenor	*Icalto	*Icant	*Icant
!Bassus	!Tenor 2	!Tenor 1	!Altus	!Cantus 2	!Cantus 1
*clefF4	*clefGv2	*clefGv2	*clefG2	*clefG2	*clefG2
*k[]	*k[]	*k[]	*k[]	*k[]	*k[]
*G:mix	*G:mix	*G:mix	*G:mix	*G:mix	*G:mix
*M4/2	*M4/2	*M4/2	*M4/2	*M4/2	*M4/2
=1	=1	=1	=1	=1	=1
1r	0d	1r	1r	0r	0r
[1G	.	[1d	[1g	.	.
=2	=2	=2	=2	=2	=2
1G]	1.B	1d]	1g]	0r	0r
1E	.	1e	1g	.	.
.	[2c	.	.	.	.
=3	=3	=3	=3	=3	=3
1F	4c]	1A	1a	0r	0r
.	4B	.	.	.	.
.	4c	.	.	.	.
.	4d	.	.	.	.
2E	2e	2B	2g	.	.
2D	2A	[2d	2f#	.	.
=4	=4	=4	=4	=4	=4
0G	2B	2d]	1g	0r	0r
.	1c	2e	.	.	.
.	.	[1d	1g	.	.
.	2B	.	.	.	.
=5	=5	=5	=5	=5	=5
1G	1B	2d]	2r	1g	2r
.	.	2G	2d	.	2b
1r	1r	2G	2d	2g	2b
.	.	2G	2d	2g	2b
=6	=6	=6	=6	=6	=6
0r	0r	1A	1c	1e	1cc
.	.	2A	2A	1e	2cc
.	.	2G	2B	.	2b
=7	=7	=7	=7	=7	=7
0r	0r	1F	2.c	1f	0a
.	.	.	8B	.	.
.	.	.	8A	.	.
.	.	4D	1d	1f	.
.	.	4E	.	.	.
.	.	4F	.	.	.
.	.	4G	.	.	.
=8	=8	=8	=8	=8	=8
2r	2r	0A	2c#	2e	2a
1AA	1A	.	1c#	1e	1a
2AA	2E	.	2c#	2e	2a
=9	=9	=9	=9	=9	=9
2D	2F	0r	2d	2d	2a
2GG	2G	.	2B	2d	2g
1D	4A	.	1A	1d	4f
.	4G	.	.	.	4g
.	2F	.	.	.	4a
.	.	.	.	.	4b
=10	=10	=10	=10	=10	=10
1.C	2.E	0r	1.e	1.g	2cc
.	.	.	.	.	1cc
.	4F	.	.	.	.
.	2G	.	.	.	.
2C	2G	.	2e	2g	2cc
=11	=11	=11	=11	=11	=11
2GG	2G	2r	1d	0g	2b
1G	1B	1d	.	.	1b
.	.	.	2.g	.	.
2C	2G	2e	.	.	2cc
.	.	.	4g	.	.
=12	=12	=12	=12	=12	=12
2F	2A	2c	2f	0r	2a
2G	2B	2B	2d	.	2g
2C	2c	2A	2e	.	2g
2D	2A	2A	2d	.	2f#
=13	=13	=13	=13	=13	=13
0GG	0B	1G	1d	0r	2g
.	.	.	.	.	1dd
.	.	2r	1d	.	.
.	.	[2G	.	.	2b
=14	=14	=14	=14	=14	=14
0r	0r	2G]	2B	1.g	2dd
.	.	2E	2e	.	2.cc
.	.	1G	1d	.	.
.	.	.	.	.	8b
.	.	.	.	.	8a
.	.	.	.	2g	2b
=15	=15	=15	=15	=15	=15
0r	0r	1F	1.f	2a	1.cc
.	.	.	.	2a	.
.	.	2.A	.	2a	.
.	.	.	2e	2a	2cc
.	.	4A	.	.	.
=16	=16	=16	=16	=16	=16
0r	0r	2E	2e	1g	2b
.	.	1G	1d	.	1b
.	.	.	.	2g	.
.	.	2C	2e	2g	2cc
=17	=17	=17	=17	=17	=17
0r	0r	2.D	1d	0f	0a
.	.	4E	.	.	.
.	.	1F	1c	.	.
=18	=18	=18	=18	=18	=18
2r	2r	1C	1c	2e	2g
2.C	2.c	.	.	2e	2.g
.	.	2r	1r	2e	.
4C	4c	.	.	.	4g
2C	2c	[2G	.	2e	2g
=19	=19	=19	=19	=19	=19
1GG	1B	4G]	0r	1d	1g
.	.	4G	.	.	.
.	.	2G	.	.	.
1D	2A	1F#	.	1d	1a
.	2D	.	.	.	.
=20	=20	=20	=20	=20	=20
1.C	2.E	2G	0r	1.g	2.cc
.	.	1c	.	.	.
.	4F	.	.	.	4dd
.	1G	.	.	.	2ee
2BB	.	2d	.	2g	2dd
=21	=21	=21	=21	=21	=21
2C	2E	2e	1r	2g	2cc
2C	2C	2e	.	2g	2cc
1GG	1G	2.d	2r	1g	1b
.	.	.	[2e	.	.
.	.	8c	.	.	.
.	.	8B	.	.	.
=22	=22	=22	=22	=22	=22
1.D	2r	1A	2e]	1.f#	0r
.	2A	.	2d	.	.
.	2A	1r	2.d	.	.
2D	[2B	.	.	2f#	.
.	.	.	4c	.	.
=23	=23	=23	=23	=23	=23
2E	4B]	0r	2B	2g	0r
.	4G	.	.	.	.
2C	1c	.	2e	2g	.
1G	.	.	1d	1g	.
.	4B	.	.	.	.
.	4A	.	.	.	.
=24	=24	=24	=24	=24	=24
0GG	1B	2r	2d	0g	2r
.	.	1G	2d	.	1b
.	1B	.	2d	.	.
.	.	2G	[2e	.	2b
=25	=25	=25	=25	=25	=25
0r	0r	2A	4e]	0r	2cc
.	.	.	4c	.	.
.	.	2F	1f	.	2a
.	.	1c	.	.	2g
.	.	.	4e	.	[2a
.	.	.	4d	.	.
=26	=26	=26	=26	=26	=26
1r	1r	2c	2e	0r	4a]
.	.	.	.	.	4g
.	.	2B	1d	.	1g
[1D	2r	1A	.	.	.
.	2A	.	2d	.	4f#
.	.	.	.	.	4e
=27	=27	=27	=27	=27	=27
2D]	2A	2r	1d	0r	2f#
2D	2.B	2d	.	.	2f#
2E	.	2B	1G	.	[1g
.	4G	.	.	.	.
2C	[2c	[2e	.	.	.
=28	=28	=28	=28	=28	=28
1G	4c]	4e]	0r	0r	1g]
.	8B	4d	.	.	.
.	8A	.	.	.	.
.	2B	2d	.	.	.
2F	2A	2d	.	.	1r
2E	2G	2c#	.	.	.
=29	=29	=29	=29	=29	=29
1D	1A	2d	2r	1f	0r
.	.	2A	2d	.	.
1r	2r	2B-	2d	2f	.
.	2d	2B-	2d	2f	.
=30	=30	=30	=30	=30	=30
0r	2d	1A	1e	1a	0r
.	2c#	.	.	.	.
.	1d	1D	1f#	1a	.
=31	=31	=31	=31	=31	=31
1G	1B	1d	2r	1g	1b
.	.	.	2g	.	.
2C	1r	2c	2e	2g	2cc
2C	.	2c	2e	2g	2cc
=32	=32	=32	=32	=32	=32
2F	0r	2A	2f	2a	2cc
2D	.	2A	2f	2a	2dd
1AA	.	1A	[1e	1a	2cc
.	.	.	.	.	[2a
=33	=33	=33	=33	=33	=33
0r	2r	1.E	1e]	1.b	2a]
.	1e	.	.	.	4g#
.	.	.	.	.	4f#
.	.	.	1r	.	2g#
.	2e	2E	.	2b	2g#
=34	=34	=34	=34	=34	=34
0r	2.e	0A	2r	0cc	0a
.	.	.	1e	.	.
.	4d	.	.	.	.
.	4c	.	.	.	.
.	4B	.	.	.	.
.	2A	.	2e	.	.
=35	=35	=35	=35	=35	=35
0E	1B	1E	1e	1b	0g#
.	2r	1B	1e	1b	.
.	2e	.	.	.	.
=36	=36	=36	=36	=36	=36
1A	2e	1c	2r	1a	2r
.	2e	.	2e	.	2a
1AA	2.c	1A	[1e	1a	2cc
.	.	.	.	.	2cc
.	4d	.	.	.	.
=37	=37	=37	=37	=37	=37
0E	4e	0B	2e]	0g#	1.b
.	4f	.	.	.	.
.	2.e	.	2B	.	.
.	.	.	1e	.	.
.	4d	.	.	.	.
.	2B	.	.	.	2e
=38	=38	=38	=38	=38	=38
0AA	1c#	0A	1e	[0a	2r
.	.	.	.	.	1e
.	2r	.	[1c#	.	.
.	[2A	.	.	.	2e
=39	=39	=39	=39	=39	=39
0r	2A]	2r	2c#]	0a]	1e
.	2A	1A	2c#	.	.
.	2D	.	2d	.	1f#
.	2D	2A	2d	.	.
=40	=40	=40	=40	=40	=40
0r	1G	2B	1d	0r	1g
.	.	2B	.	.	.
.	2.F	1c	1f	.	[1a
.	4E	.	.	.	.
=41	=41	=41	=41	=41	=41
0r	2D	2.d	1.f	0r	1a]
.	1d	.	.	.	.
.	.	8c	.	.	.
.	.	8B	.	.	.
.	.	1A	.	.	2r
.	2c	.	2e	.	[2a
=42	=42	=42	=42	=42	=42
0r	1d	0r	1f	0r	2a]
.	.	.	.	.	2b
.	2A	.	2e	.	2.cc
.	[2c	.	[2e	.	.
.	.	.	.	.	4g
=43	=43	=43	=43	=43	=43
0r	2c]	0r	2e]	0r	2a
.	2B	.	2d	.	2b
.	1A	.	2e	.	1cc
.	.	.	2f#	.	.
=44	=44	=44	=44	=44	=44
2r	1G	2r	2g	0r	0b
1G	.	1B	1d	.	.
.	2r	.	.	.	.
2G	[2G	2B	2d	.	.
=45	=45	=45	=45	=45	=45
2.E	2G]	2.B	2.e	0r	0r
.	2G	.	.	.	.
4E	.	4B	4e	.	.
2C	2.A	2c	2e	.	.
[2D	.	[2F	[2f	.	.
.	4A	.	.	.	.
=46	=46	=46	=46	=46	=46
4D]	1D	2F]	4f]	0r	0r
4C	.	.	4e	.	.
2BB-	.	2G	1d	.	.
1AA	2E	[1A	.	.	.
.	2E	.	2c#	.	.
=47	=47	=47	=47	=47	=47
0D	2D	1A]	2d	0r	2r
.	2d	.	2f	.	2a
.	2d	1r	2f	.	2a
.	2A	.	2f	.	2a
=48	=48	=48	=48	=48	=48
0r	2c	2r	0e	0r	0g
.	4B	2E	.	.	.
.	4A	.	.	.	.
.	2B	2E	.	.	.
.	[2c	2E	.	.	.
=49	=49	=49	=49	=49	=49
0r	2c]	1F	1c	0r	1.f
.	2A	.	.	.	.
.	1A	2D	2.d	.	.
.	.	2D	.	.	2f
.	.	.	4d	.	.
=50	=50	=50	=50	=50	=50
1AA	2r	0A	2c	1a	1e
.	2c	.	2A	.	.
2AA	2e	.	2c	2a	1r
2AA	2e	.	2c	2a	.
=51	=51	=51	=51	=51	=51
1C	1e	2r	1c	1g	0r
.	.	2E	.	.	.
2C	2c	2E	2e	2g	.
2C	2c	2E	2e	2g	.
=52	=52	=52	=52	=52	=52
0D	1A	1F	1d	0f	2r
.	.	.	.	.	2a
.	1A	2F	2d	.	2a
.	.	2D	2a	.	2a
=53	=53	=53	=53	=53	=53
1AA	2r	0A	1a	0e	1cc#
.	2e	.	.	.	.
2r	2e	.	2A	.	2cc#
2A	2A	.	2e	.	2cc#
=54	=54	=54	=54	=54	=54
4A	2r	0D	1d	0f	1dd
4G	.	.	.	.	.
4F	2A	.	.	.	.
4E	.	.	.	.	.
4D	2A	.	2.d	.	2dd
4C	.	.	.	.	.
4BB-	2D	.	.	.	2dd
4AA	.	.	4c	.	.
=55	=55	=55	=55	=55	=55
1GG	2D	2d	4B-	0g	4dd
.	.	.	4A	.	4cc
.	2.d	4d	2G	.	4b-
.	.	4c	.	.	4a
1GG	.	4B-	[1d	.	2g
.	4c	4A	.	.	.
.	2B-	2G	.	.	[2d
=56	=56	=56	=56	=56	=56
0D	2A	1A	1d]	1f#	2d]
.	2D	.	.	.	2.dd
.	1A	[1D	2.d	1f#	.
.	.	.	.	.	4cc
.	.	.	.	.	2a
.	.	.	4c	.	.
=57	=57	=57	=57	=57	=57
0GG	0G	2D]	2B	0g	2b
.	.	2C	2e	.	2.cc
.	.	1D	1d	.	.
.	.	.	.	.	8b
.	.	.	.	.	8a
.	.	.	.	.	2b
=58	=58	=58	=58	=58	=58
0C	0G	0E	0c	0g	0cc
=59	=59	=59	=59	=59	=59
1r	1r	1r	1r	1r	1r
1C	1G	1E	1e	1g	1cc
=60	=60	=60	=60	=60	=60
1C	1E	1.G	1e	1cc	1g
1GG	2G	.	1d	1b	1g
.	[2G	2D	.	.	.
=61	=61	=61	=61	=61	=61
1C	4G]	2E	2c	1cc	1g
.	4F	.	.	.	.
.	2E	2.G	2e	.	.
1GG	1D	.	1g	[1dd	1b-
.	.	4F	.	.	.
.	.	4D	.	.	.
.	.	4E	.	.	.
=62	=62	=62	=62	=62	=62
0AA	[0A	4F	2f	2dd]	[0a
.	.	4G	.	.	.
.	.	2.A	4e	4cc#	.
.	.	.	4d	4b	.
.	.	.	1e	1cc#	.
.	.	4G	.	.	.
.	.	2E	.	.	.
=63	=63	=63	=63	=63	=63
0D	1A]	1F#	0d	1dd	0a]
.	1A	1F#	.	1dd	.
=64	=64	=64	=64	=64	=64
1C	1c	1G	2r	1ee	1r
.	.	.	2g	.	.
1GG	1B	1G	1g	1dd	2r
.	.	.	.	.	2dd
=65	=65	=65	=65	=65	=65
4C	1c	4E	1g	1cc	1ee
4D	.	4F	.	.	.
4E	.	4G	.	.	.
4F	.	4A	.	.	.
1G	1r	4B	2.g	1b	1dd
.	.	4c	.	.	.
.	.	4d	.	.	.
.	.	4B	4f	.	.
=66	=66	=66	=66	=66	=66
2A	0r	2c	4e	1a	1cc
.	.	.	8d	.	.
.	.	.	8e	.	.
2F	.	2A	2f	.	.
1G	.	2B	1d	[1g	1b
.	.	2G	.	.	.
=67	=67	=67	=67	=67	=67
0D	0r	0A	[0d	2g]	0a
.	.	.	.	4f#	.
.	.	.	.	4e	.
.	.	.	.	1f#	.
=68	=68	=68	=68	=68	=68
1r	1r	0G	1d]	0g	1b
1C	1c	.	1e	.	[1g
=69	=69	=69	=69	=69	=69
1E	1B	0r	1e	0r	1g]
1F	1A	.	1c	.	1f
=70	=70	=70	=70	=70	=70
1C	2G	0r	1g	0r	1e
.	1c	.	.	.	.
[1G	.	.	2.g	.	[1d
.	4B	.	.	.	.
.	4A	.	8f	.	.
.	.	.	8e	.	.
=71	=71	=71	=71	=71	=71
1G]	1B	0r	2d	0r	2d]
.	.	.	1e	.	1g
1A	1c	.	.	.	.
.	.	.	2c	.	2f#
=72	=72	=72	=72	=72	=72
1G	1d	1r	1B	1r	1g
[1GG	1r	[1G	[1d	[1g	[1b-
=73	=73	=73	=73	=73	=73
1GG]	0D	1G]	1d]	1g]	1b-]
1D	.	1A	1d	1f	1a
=74	=74	=74	=74	=74	=74
1AA	1A	2A	2.c	1e	1a
.	.	1c	.	.	.
.	.	.	8B	.	.
.	.	.	8A	.	.
1C	1E	.	2G	1e	1g
.	.	[2G	2c	.	.
=75	=75	=75	=75	=75	=75
0GG	1G	4G]	2B	1d	0g
.	.	4A	.	.	.
.	.	4B	4G	.	.
.	.	4c	4A	.	.
.	[1D	2d	4B	[1g	.
.	.	.	4c	.	.
.	.	2G	[2d	.	.
=76	=76	=76	=76	=76	=76
0D	1D]	0A	2d]	2g]	0a
.	.	.	4c	4f#	.
.	.	.	4B	4e	.
.	1d	.	2A	1f#	.
.	.	.	[2d	.	.
=77	=77	=77	=77	=77	=77
[0GG	2.B	[0G	4d]	[0g	[0b
.	.	.	4c	.	.
.	.	.	4B	.	.
.	4c	.	4A	.	.
.	1d	.	2.B	.	.
.	.	.	4c	.	.
=78	=78	=78	=78	=78	=78
0GG]	0B	0G]	0d	0g]	0b]
*	*	*	*	*-	*-
!! Crucifixus
*Itenor	*Itenor	*Icalto	*Icant
!Tenor 2	!Tenor 1	!Altus	!Cantus
*clefGv2	*clefGv2	*clefG2	*clefG2
*k[]	*k[]	*k[]	*k[]
*G:mix	*G:mix	*G:mix	*G:mix
*M4/2	*M4/2	*M4/2	*M4/2
=79	=79	=79	=79
0d	0G	0g	0b
=80	=80	=80	=80
1d	1G	1g	1b
1e	1c	1g	1cc
=81	=81	=81	=81
2c	2.F	2f	0a
1d	.	1f	.
.	4G	.	.
.	1A	.	.
2c	.	2e	.
=82	=82	=82	=82
2B	1D	2d	2r
2A	.	2f	1a
2.c	1r	2.e	.
.	.	.	2g
4B	.	4d	.
=83	=83	=83	=83
1A	1r	4c	2f
.	.	4B	.
.	.	1c	2e
1G	2r	.	2.g
.	[2d	2B	.
.	.	.	4f
=84	=84	=84	=84
0r	2d]	2r	1e
.	2c	1g	.
.	2B	.	2d
.	2A	2f	[2a
=85	=85	=85	=85
1r	2c	2e	2a]
.	2B	2d	2g
2r	2.A	2f	[1cc
[2A	.	4e	.
.	4B	4d	.
=86	=86	=86	=86
2A]	4c	1e	2cc]
.	4d	.	.
2G	2.e	.	2b
2F	.	2.f	[1a
.	4d	.	.
2D	[2d	.	.
.	.	4d	.
=87	=87	=87	=87
1A	2d]	1e	1a]
.	2c#	.	.
1D	1d	1f#	1a
=88	=88	=88	=88
1G	1d	1g	1b
1c	[1e	[1g	[1cc
=89	=89	=89	=89
1G	2e]	2g]	2cc]
.	2d	2g	2b
2A	2c	2e	2a
2E	2B	2e	2g#
=90	=90	=90	=90
4F	4A	4c	0a
4E	4G	8d	.
.	.	8e	.
4D	4F	1f	.
4E	4G	.	.
4F	4A	.	.
4G	4B	.	.
4A	[2c	[2e	.
4B	.	.	.
=91	=91	=91	=91
4c	4c]	4e]	[0g
4d	4B	4d	.
4e	2c	2.c	.
4c	.	.	.
1d	1G	.	.
.	.	8B	.
.	.	8A	.
.	.	2B	.
=92	=92	=92	=92
1e	1r	1c	1g]
[1c	1C	[1e	[1g
=93	=93	=93	=93
1c]	0G	1e]	1g]
1B	.	1d	1g
=94	=94	=94	=94
2.d	2.D	2.f	1.a
4c	4E	4e	.
2A	2F	2c	.
2B	2G	[2e	2g
=95	=95	=95	=95
2c	1A	4e]	2e
.	.	4d	.
2A	.	2c	2.f
2B	2G	2B	.
.	.	.	4e
[2c	2E	2G	[2e
=96	=96	=96	=96
4c]	1F	1A	4e]
4B	.	.	8d
.	.	.	8c
1A	.	.	2d
.	[1E	1B	1e
4G#	.	.	.
4F#	.	.	.
=97	=97	=97	=97
1G#	1E]	2r	2r
.	.	2e	2b
1A	1r	2.e	2.cc
.	.	4f	4a
=98	=98	=98	=98
0r	0r	2g	2b
.	.	2e	2cc
.	.	2.f	2.a
.	.	4d	4f
=99	=99	=99	=99
0r	0r	2e	2g
.	.	2.f	4a
.	.	.	4g
.	.	.	4a
.	.	4e	4b
.	.	4e	[2cc
.	.	8d	.
.	.	8c	.
=100	=100	=100	=100
1r	2r	2.d	4cc]
.	.	.	4b
.	2G	.	4b
.	.	4e	8a
.	.	.	8g
2r	2F	[1f	[1a
2d	2D	.	.
=101	=101	=101	=101
2c	2.F	1f]	0a]
2A	.	.	.
.	4G	.	.
2.c	4A	1e	.
.	4G	.	.
.	4A	.	.
4d	4B	.	.
=102	=102	=102	=102
4e	4c	1r	0g
4d	4d	.	.
4c	1e	.	.
4B	.	.	.
2c	.	2r	.
2B	2d	2g	.
=103	=103	=103	=103
1A	1c	2f	2r
.	.	2e	2cc
1G	1d	2.g	2b
.	.	.	2g
.	.	4f	.
=104	=104	=104	=104
0r	0r	4e	2b
.	.	4d	.
.	.	4c	2.cc
.	.	4B	.
.	.	2A	.
.	.	.	4b
.	.	[2d	4a
.	.	.	4g
=105	=105	=105	=105
1r	0r	4d]	4f
.	.	4c	4e
.	.	1c	4e
.	.	.	8d
.	.	.	8c
1G	.	.	1d
.	.	2B	.
=106	=106	=106	=106
1A	1r	2r	1c
.	.	2c	.
1B	1G	2d	1r
.	.	[2e	.
=107	=107	=107	=107
1c	1A	2e]	0r
.	.	2f	.
2d	2B	1g	.
[2e	[2c	.	.
=108	=108	=108	=108
4e]	2c]	1g	1r
8d	.	.	.
8c	.	.	.
2B	2d	.	.
2c	2e	1a	2r
[2d	[2f	.	2d
=109	=109	=109	=109
4d]	4f]	1d	2f
4c	4e	.	.
2B-	1d	.	2g
1A	.	1e	2a
.	2c	.	2a
=110	=110	=110	=110
1D	2.d	2.f	4a
.	.	.	4g
.	.	.	4a
.	4c	4g	4b
1r	4A	2a	4cc
.	4B	.	4dd
.	2c	[2g	[2ee
=111	=111	=111	=111
1r	1d	4g]	2ee]
.	.	4f	.
.	.	4f	1dd
.	.	8e	.
.	.	8d	.
2r	1A	2e	.
2A	.	2e	4cc
.	.	.	4b
=112	=112	=112	=112
2A	1r	2e	2cc
2A	.	2e	2a
2.d	2r	2.f#	2a
.	2d	.	2a
4d	.	4f#	.
=113	=113	=113	=113
1G	2d	0g	2.b
.	2d	.	.
.	.	.	4b
1c	2.e	.	1cc
.	4c	.	.
=114	=114	=114	=114
0F	2c	1.f	0a
.	2.d	.	.
.	4c	.	.
.	[2c	2e	.
=115	=115	=115	=115
2r	2c]	0d	1g
2G	4B	.	.
.	4A	.	.
2.G	1B	.	2r
.	.	.	2g
4G	.	.	.
=116	=116	=116	=116
1C	2r	1e	2.g
.	2c	.	.
.	.	.	4g
2r	2.c	2.e	[1g
[2c	.	.	.
.	4c	4e	.
=117	=117	=117	=117
4c]	1G	2d	2g]
8B	.	.	.
8A	.	.	.
2B	.	2d	2g
2c	1r	2e	2a
2d	.	2f#	2a
=118	=118	=118	=118
2G	2r	2g	2b
2G	2d	2g	2b
2.G	2.d	2.g	2.b
4G	4d	4g	4b
=119	=119	=119	=119
1G	2d	1g	1b
.	2.e	.	.
[1A	.	[1e	[1cc
.	4d	.	.
.	4c	.	.
.	4B	.	.
=120	=120	=120	=120
2A]	2A	2e]	2cc]
2B	2G	2e	2b
1c	1A	1e	1a
=121	=121	=121	=121
2c	0F	2f	1a
2.c	.	4F	.
.	.	4G	.
.	.	4A	2.cc
4B	.	4B	.
4A	.	[2c	.
4G	.	.	4b
=122	=122	=122	=122
4F	1r	2c]	4a
4E	.	.	4g
4D	.	2d	1f
4E	.	.	.
4F	2.c	1A	.
4G	.	.	.
2A	.	.	2e
.	4B	.	.
=123	=123	=123	=123
1F	4A	2.c	1.a
.	4G	.	.
.	1F	.	.
.	.	4B	.
2r	.	4c	.
.	.	4d	.
[2c	2E	[2e	4g
.	.	.	4f
=124	=124	=124	=124
4c]	1A	4e]	2e
4B	.	4d	.
4c	.	4e	1cc
4d	.	4f	.
2e	1G	2.g	.
[2d	.	.	2b-
.	.	4f	.
=125	=125	=125	=125
2d]	1.A	1.e	1.a
4c#	.	.	.
4B	.	.	.
2c#	.	.	.
2c#	2A	2e	2a
=126	=126	=126	=126
1d	1D	2d	1f#
.	.	1A	.
2r	2r	.	2r
[2A	[2D	2A	[2f#
=127	=127	=127	=127
2A]	2D]	1.d	2f#]
2A	2D	.	2f#
1B	1G	.	1g
.	.	2G	.
=128	=128	=128	=128
1c	2C	1g	1e
.	1c	.	.
1r	.	2a	1r
.	2d	2f	.
=129	=129	=129	=129
1r	2B	4g	0r
.	.	4f	.
.	4c	4e	.
.	4B	4d	.
1c	4A	2e	.
.	4G	.	.
.	4F	[2f	.
.	4E	.	.
=130	=130	=130	=130
2d	2D	2f]	0r
2B	2G	4e	.
.	.	4d	.
4c	2C	4e	.
4B	.	4d	.
4A	4F	4c	.
4G	4G	4B	.
=131	=131	=131	=131
2F	4A	4c	2r
.	4B	4d	.
2E	2c	2e	2g
2F	2A	1c	2a
2A	[2c	.	2f
=132	=132	=132	=132
1G	4c]	1d	2.g
.	8B	.	.
.	8A	.	.
.	2B	.	.
.	.	.	4f
1C	1c	2r	4e
.	.	.	4d
.	.	2g	2e
=133	=133	=133	=133
0r	0r	2a	2f
.	.	2f	2d
.	.	4g	2e
.	.	4f	.
.	.	4e	4c
.	.	4d	4d
=134	=134	=134	=134
1r	0r	4c	4e
.	.	4d	4f
.	.	4e	4g
.	.	4c	4a
2r	.	2.d	4b
.	.	.	4cc
[2G	.	.	[2dd
.	.	4B	.
=135	=135	=135	=135
2G]	1r	1e	2dd]
2A	.	.	1cc
2F	2r	1d	.
[2G	[2d	.	4b
.	.	.	4a
=136	=136	=136	=136
4G]	2d]	1G	2b
4F	.	.	.
4E	1e	.	1g
4D	.	.	.
2E	.	1r	.
2F	2c	.	2a
=137	=137	=137	=137
2D	4d	1r	2f
.	4c	.	.
2.G	4B	.	4g
.	4A	.	4a
.	2G	2r	4b
4E	.	.	4cc
2F#	2A	2d	[2a
=138	=138	=138	=138
2G	2B	2e	4a]
.	.	.	4g
2E	4A	2c	1g
.	4G	.	.
1D	1A	2.d	.
.	.	.	2f#
.	.	4c	.
=139	=139	=139	=139
2.E	2.G	4B	[0g
.	.	4A	.
.	.	2B	.
4D	8A	.	.
.	8B	.	.
4C	1c	1e	.
4D	.	.	.
4E	.	.	.
4F	.	.	.
=140	=140	=140	=140
0G	0B	0d	0g]
*-	*-	*-	*-
!! Et in Spiritum
**kern	**kern	**kern	**kern	**kern	**kern
*Ibass	*Itenor	*Itenor	*Icalto	*Icant	*Icant
!Bassus	!Tenor 2	!Tenor 1	!Altus	!Cantus 2	!Cantus 1
*clefF4	*clefGv2	*clefGv2	*clefG2	*clefG2	*clefG2
*k[]	*k[]	*k[]	*k[]	*k[]	*k[]
*G:mix	*G:mix	*G:mix	*G:mix	*G:mix	*G:mix
*M3/2	*M3/2	*M3/2	*M3/2	*M3/2	*M3/2
=141	=141	=141	=141	=141	=141
1G	1r	1r	1d	1g	1b
2G	2r	2r	2d	2g	2b
=142	=142	=142	=142	=142	=142
2.C	1r	1r	2.g	2.e	2.cc
4C	.	.	4g	4e	4cc
2C	2r	2r	2g	2e	2cc
=143	=143	=143	=143	=143	=143
1F	1r	1r	1c	1f	1a
2D	2r	2r	2d	2f	2a
=144	=144	=144	=144	=144	=144
2.A	1r	1r	2.c#	2.e	2.a
4A	.	.	4c#	4e	4a
2A	2r	2r	2c#	2e	2a
=145	=145	=145	=145	=145	=145
2D	1r	1r	2d	2d	2f#
2D	.	.	2A	2d	2f#
2G	2r	2r	2B	2d	2g
=146	=146	=146	=146	=146	=146
2C	1r	1r	2c	2g	2e
1C	.	.	1e	1g	1cc
.	2r	2r	.	.	.
=147	=147	=147	=147	=147	=147
1.GG	2r	2r	2d	1.g	2b
.	2B	2G	2d	.	2b
.	2d	2G	2g	.	2b
=148	=148	=148	=148	=148	=148
1r	1e	1c	1g	1r	1cc
2r	2d	2G	2g	2r	2b
=149	=149	=149	=149	=149	=149
1r	1c	1A	1e	1r	1a
2r	2B	2E	2e	2r	2g#
=150	=150	=150	=150	=150	=150
1r	1d	1D	1f	1r	1a
2r	2c#	2A	2e	2r	2a
=151	=151	=151	=151	=151	=151
1r	2d	2D	2f	1r	2a
.	1B	1G	1d	.	1g
2r	.	.	.	2r	.
=152	=152	=152	=152	=152	=152
2r	1c	2C	2c	1g	1e
2C	.	2c	2e	.	.
2G	2r	2B	2d	2g	2r
=153	=153	=153	=153	=153	=153
2F	1r	2c	2f	2a	1r
2D	.	2d	2f	2a	.
2F	2r	2c	2f	2a	2r
=154	=154	=154	=154	=154	=154
2.C	1r	2.c	2.e	2.g	1r
4C	.	4c	4e	4g	.
2C	2r	2c	2e	2g	2r
=155	=155	=155	=155	=155	=155
2.D	1r	2.A	2.d	2.f	1r
4D	.	4A	4d	4f	.
2D	2r	2A	2d	2f	2r
=156	=156	=156	=156	=156	=156
2AA	1r	2A	2c	2e	1r
1C	.	1G	1c	1e	.
.	2r	.	.	.	2r
=157	=157	=157	=157	=157	=157
[1.GG	2r	1G	1B	1d	2r
.	2r	.	.	.	2r
.	2G	2B	2r	2d	2g
=158	=158	=158	=158	=158	=158
1.GG]	2.G	2.d	1r	2.g	2.b
.	4G	4d	.	4g	4b
.	2G	2d	2r	2g	2b
=159	=159	=159	=159	=159	=159
1r	2C	2e	1r	2g	2cc
.	1G	1d	.	1g	1b
2r	.	.	2r	.	.
=160	=160	=160	=160	=160	=160
2r	2D	2d	2r	2f#	2a
2D	2A	2r	2d	2f#	2a
2D	2d	2r	2d	2f#	2a
=161	=161	=161	=161	=161	=161
1G	1d	1r	1B	1g	1b
2C	2c	2r	2e	2g	2cc
=162	=162	=162	=162	=162	=162
1G	1B	2r	1d	1.g	1dd
.	.	2G	.	.	.
2C	2G	2E	2e	.	2cc
=163	=163	=163	=163	=163	=163
2GG	2G	2.G	2d	1.r	2b
1D	1A	.	1d	.	1a
.	.	8F#	.	.	.
.	.	8E	.	.	.
.	.	2F#	.	.	.
=164	=164	=164	=164	=164	=164
1GG	1B	1G	1d	1.r	1g
2r	2r	2r	2r	.	2r
!! Et unam Sanctam
*Ibass	*Itenor	*Itenor	*Icalto	*Icant	*Icant
!Bassus	!Tenor 2	!Tenor 1	!Altus	!Cantus 2	!Cantus 1
*clefF4	*clefGv2	*clefGv2	*clefG2	*clefG2	*clefG2
*k[]	*k[]	*k[]	*k[]	*k[]	*k[]
*G:mix	*G:mix	*G:mix	*G:mix	*G:mix	*G:mix
*M4/2	*M4/2	*M4/2	*M4/2	*M4/2	*M4/2
=165	=165	=165	=165	=165	=165
1D	1A	2r	1d	0r	1f#
.	.	2D	.	.	.
1D	1A	1F#	1d	.	1a
=166	=166	=166	=166	=166	=166
2GG	1B	1G	1d	0r	1g
2.G	.	.	.	.	.
.	1A	1D	[1d	.	1a
8F#	.	.	.	.	.
8E	.	.	.	.	.
2F#	.	.	.	.	.
=167	=167	=167	=167	=167	=167
2G	0G	1d	2d]	0r	1b
2G	.	.	2G	.	.
4C	.	1e	1g	.	1cc
4D	.	.	.	.	.
4E	.	.	.	.	.
4F	.	.	.	.	.
=168	=168	=168	=168	=168	=168
2G	0r	2d	2g	0r	2b
2A	.	2c	2e	.	1a
1E	.	1B	1e	.	.
.	.	.	.	.	2g
=169	=169	=169	=169	=169	=169
1D	2r	1d	1A	1f	2.a
.	1d	.	.	.	.
.	.	.	.	.	4g
1r	.	2r	1r	1a	2f
.	[2c	2A	.	.	2e
=170	=170	=170	=170	=170	=170
0r	2c]	2c	0r	1g	2e
.	2B	2d	.	.	2d
.	2.A	2.c	.	2.a	2e
.	.	.	.	.	2f#
.	4A	4c	.	4a	.
=171	=171	=171	=171	=171	=171
0r	1G	1d	2r	1b	1g
.	.	.	2d	.	.
.	1F	1r	2.f	1cc	1a
.	.	.	4e	.	.
=172	=172	=172	=172	=172	=172
0r	2G	1r	2d	2b-	2g
.	2A	.	2c	1a	2f
.	1B-	2r	1d	.	2f
.	.	[2d	.	2g	4e
.	.	.	.	.	4d
=173	=173	=173	=173	=173	=173
2r	1A	2d]	1r	1a	0e
1A	.	1c	.	.	.
.	1r	.	2r	1r	.
[2G	.	4B	2e	.	.
.	.	4A	.	.	.
=174	=174	=174	=174	=174	=174
2G]	0r	2B	2.d	0r	2r
2F	.	2A	.	.	1a
.	.	.	4d	.	.
1E	.	2.B	1e	.	.
.	.	.	.	.	[2g
.	.	4c	.	.	.
=175	=175	=175	=175	=175	=175
1D	0r	1d	1A	0r	2g]
.	.	.	.	.	2f
1C	.	1G	1c	.	1e
=176	=176	=176	=176	=176	=176
2D	1r	2d	2A	0r	2f#
2E	.	2c	2G	.	1g
1D	2r	2.d	1A	.	.
.	[2d	.	.	.	2f#
.	.	4c	.	.	.
=177	=177	=177	=177	=177	=177
2GG	2d]	2B	2r	0r	1g
4C	2c	2c	1e	.	.
4D	.	.	.	.	.
4E	1B	1G	.	.	1g
4F	.	.	.	.	.
[2G	.	.	2d	.	.
=178	=178	=178	=178	=178	=178
2G]	1A	1r	1.d	1a	0r
2F#	.	.	.	.	.
2G	2B	2r	.	1g	.
2C	2E	[2e	2c	.	.
=179	=179	=179	=179	=179	=179
1D	2.F	2e]	0A	2.f	0r
.	.	2d	.	.	.
.	4G	.	.	4f	.
1AA	4A	2d	.	1e	.
.	8G	.	.	.	.
.	8F	.	.	.	.
.	2E	2c#	.	.	.
=180	=180	=180	=180	=180	=180
1D	1.D	2d	1A	1f#	0r
.	.	2d	.	.	.
4GG	.	2B	1d	1g	.
4AA	.	.	.	.	.
4BB	[2d	2B	.	.	.
4C	.	.	.	.	.
=181	=181	=181	=181	=181	=181
1D	4d]	1A	1d	1f#	0r
.	4c	.	.	.	.
.	2A	.	.	.	.
1GG	1B	[1G	1d	1g	.
=182	=182	=182	=182	=182	=182
0C	1c	1G]	1e	1g	0r
.	1r	[1c	[1e	1g	.
=183	=183	=183	=183	=183	=183
0r	0r	1c]	1e]	1cc	0g
.	.	1G	2d	1b	.
.	.	.	[2e	.	.
=184	=184	=184	=184	=184	=184
0r	0r	1A	4e]	1cc	2e
.	.	.	4c	.	.
.	.	.	1f	.	2.a
.	.	1B-	.	[1dd	.
.	.	.	.	.	4g
.	.	.	4e	.	4g
.	.	.	4d	.	8f
.	.	.	.	.	8g
=185	=185	=185	=185	=185	=185
0r	0r	0A	0e	2dd]	0a
.	.	.	.	4cc#	.
.	.	.	.	4b	.
.	.	.	.	1cc#	.
!! resurrectionem
*Ibass	*Itenor	*Itenor	*Icalto	*Icant	*Icant
!Bassus	!Tenor 2	!Tenor 1	!Altus	!Cantus 2	!Cantus 1
*clefF4	*clefGv2	*clefGv2	*clefG2	*clefG2	*clefG2
*k[]	*k[]	*k[]	*k[]	*k[]	*k[]
*G:mix	*G:mix	*G:mix	*G:mix	*G:mix	*G:mix
*M3/2	*M3/2	*M3/2	*M3/2	*M3/2	*M3/2
=186	=186	=186	=186	=186	=186
1G	1B	1r	2g	2dd	1b
.	.	.	2g	2dd	.
2C	2c	2r	2g	2ee	2r
=187	=187	=187	=187	=187	=187
1G	1B	2r	1g	1dd	1r
.	.	2d	.	.	.
2C	2c	2e	2g	2cc	2r
=188	=188	=188	=188	=188	=188
1G	1d	2d	1g	1b	1r
.	.	2G	.	.	.
2D	2d	2A	2f	2a	2r
=189	=189	=189	=189	=189	=189
1G	1r	2B	1d	1g	1r
.	.	2B	.	.	.
2A	2r	2c	2c	2f#	2r
=190	=190	=190	=190	=190	=190
1G	2r	1d	1B	1g	2r
.	2B	.	.	.	2dd
2C	2c	2c	[2G	2g	2ee
=191	=191	=191	=191	=191	=191
2r	1B	2r	2G]	1r	1dd
2G	.	2d	2g	.	.
2C	2c	2e	2g	2r	2cc
=192	=192	=192	=192	=192	=192
2G	2d	2d	2g	1r	1b
2E	2e	2G	2g	.	.
2F	2c	2A	2f	2r	2a
=193	=193	=193	=193	=193	=193
2G	2B	2B	2d	1r	1g
2E	2G	2c	2e	.	.
2D	2A	2d	2A	2r	2f#
=194	=194	=194	=194	=194	=194
1C	2.E	1e	1c	1r	1g
.	4F	.	.	.	.
2GG	2G	2d	2B	2r	2g
!! Et vitam
*Ibass	*Itenor	*Itenor	*Icalto	*Icant	*Icant
!Bassus	!Tenor 2	!Tenor 1	!Altus	!Cantus 2	!Cantus 1
*clefF4	*clefGv2	*clefGv2	*clefG2	*clefG2	*clefG2
*k[]	*k[]	*k[]	*k[]	*k[]	*k[]
*G:mix	*G:mix	*G:mix	*G:mix	*G:mix	*G:mix
*M4/2	*M4/2	*M4/2	*M4/2	*M4/2	*M4/2
=195	=195	=195	=195	=195	=195
0C	0E	0c	0e	0g	1r
.	.	.	.	.	[1cc
=196	=196	=196	=196	=196	=196
0GG	1G	1d	0d	0g	2cc]
.	.	.	.	.	4b-
.	.	.	.	.	4a
.	[1D	1G	.	.	1b-
=197	=197	=197	=197	=197	=197
1D	1D]	1A	1d	1f	2a
.	.	.	.	.	2d
1BB-	1D	1B-	1d	1f	1dd
=198	=198	=198	=198	=198	=198
0C	1E	1G	1g	0e	1.cc
.	1C	2G	1g	.	.
.	.	[2c	.	.	2g
=199	=199	=199	=199	=199	=199
1GG	1.D	2c]	2r	0d	2g
.	.	2B	1g	.	2g
1D	.	2.A	.	.	1a
.	2D	.	2f	.	.
.	.	4B	.	.	.
=200	=200	=200	=200	=200	=200
1C	1E	2c	1e	1.g	2r
.	.	1G	.	.	1cc
1GG	1G	.	1d	.	.
.	.	[2d	.	2g	2b
=201	=201	=201	=201	=201	=201
0D	0A	2d]	0d	0f#	0a
.	.	4c	.	.	.
.	.	4B	.	.	.
.	.	2A	.	.	.
.	.	[2d	.	.	.
=202	=202	=202	=202	=202	=202
1.GG	[0G	2d]	1.B	0g	1.dd
.	.	2c	.	.	.
.	.	2B	.	.	.
2AA	.	2A	2c	.	2cc
=203	=203	=203	=203	=203	=203
1BB	1G_	2G	1d	[0g	2b
.	.	2F	.	.	2a
1C	1G_	2E	1e	.	2g
.	.	2C	.	.	[2cc
=204	=204	=204	=204	=204	=204
0GG	0G]	0D	0d	0g]	2cc]
.	.	.	.	.	4b
.	.	.	.	.	4a
.	.	.	.	.	1b
=205	=205	=205	=205	=205	=205
0C	[0G	0E	0c	[0g	0cc
=206	=206	=206	=206	=206	=206
0GG	0G]	0D	0d	0g]	0b
==	==	==	==	==	==
*-	*-	*-	*-	*-	*-
!!!CDT: 1525/^1526/-1594/2/2
!!!OCY: Italia
!!!AGN: Mass (Tenor)
!!!AST: renaissance, vocal
!!!ASW: Hymn
!!!PWK: Masses, Book 11
!!!RNB: Cadence finals: A,C
!!!YOR: Le Opere Complete, v. 28, p. 114
!!!YOO: Rome, Italy: Fratelli Scalera
!!!END: 1992//
!!!EED: John Miller
!!!YEC: Copyright 2000, John Miller
!!!YEN: United States of America
!!!YEM: Rights to all derivative electronic formats reserved.
!!!YEM: Refer to licensing agreement for further details.
!!!YEM: This file must be accompanied by the licensing agreement.
!!!YEM: A copy of the licensing agreement may be found at http://www.music-cog.ohio-state.edu/HumdrumDatabases/Palestrina/license.txt
!!!EMD: converted to Humdrum by Bret Aarden
